**kern	**kern	**dynam
*part1	*part1	*part1
*staff2	*staff1	*
*I"Piano	*	*
*clefF4	*clefG2	*
*k[f#c#g#d#a#]	*k[f#c#g#d#a#]	*
=1	=1	=1
*^	*^	*
4r	2.GG#	2.dd#	8d#L	.
.	.	.	8f#	.
4F#	.	.	8b	.
.	.	.	8f#	.
!	!	!LO:TX:b:i:t=cresc.	!	!
4F#	.	.	8d#	.
.	.	.	8f#J	.
=	=	=	=	=
4r	2.FF#	2.ee	8eL	.
.	.	.	8f#	.
4F# 4A#X 4c#	.	.	8a#X	.
.	.	.	8f#	.
4F# 4A# 4c#	.	.	8e	.
.	.	.	8f#J	.
*v	*v	*	*	*
=	=	=	=
4F# 4G# 4B 4dn	2.ee#X	8e#XL	.
.	.	8g#	.
4F# 4G# 4B 4d	.	8b	.
.	.	8g#	.
4F# 4G# 4B 4d	.	8e#	.
.	.	8g#J	.
=	=	=	=
!	!	!	!LO:DY:a
!	!	!	!LO:DY:a
4F# 4A# 4c# 4e	2.gg#	8g#L	ff f
.	.	8a#	.
4F# 4A# 4c# 4e	.	8cc#	.
.	.	8a#	.
4F# 4A# 4c# 4e	.	8g#	.
.	.	8a#J	.
=	=	=	=
4F# 4A# 4c# 4e	2gg#	8g#L	.
.	.	8a#	.
4F# 4A# 4c# 4e	.	8cc#	.
.	.	8a#	.
4F# 4A# 4c# 4e	4ff#	8f#	.
.	.	8a#J	.
*	*v	*v	*
=	=	=
4BB 4F# 4B	8BL 8b	.
.	8d#	.
4BB 4F# 4B	8f#	.
.	8b	.
4BB 4F# 4B	8dd#	.
.	8ff#J	.
=	=	=
*^	*^	*
!	!	!	!	!LO:DY:a
4gn	2.E	4bb	8bbL	f
.	.	.	8b	.
4e	.	4ggn	8gg	.
.	.	.	8b	.
4B	.	4ee	8ee	.
.	.	.	8bJ	.
*v	*v	*	*	*
*	*v	*v	*
=	=	=
*-	*-	*-
!!!system-decoration: {(s1,s2)}
